plasma/desktoptheme/Materia/icons/kup.svg

<svg xmlns="http://www.w3.org/2000/svg" width="32" height="32" version="1">
 <g id="22-22-kup" transform="translate(32,10)">
  <rect style="opacity:0.001" width="22" height="22" x="0" y="0"/>
  <path style="fill:#dfdfdf" d="M 4.002905,3.0004358 A 0.99829173,0.99855868 0 0 0 3.3069001,4.7145867 l 2.1036114,2.1041741 a 6.987343,6.9892116 0 0 0 -1.3978586,4.1790962 6.987343,6.9892116 0 0 0 1.3978586,4.179096 l -2.1036114,2.104174 a 0.99829173,0.99855868 0 1 0 1.4115056,1.411883 l 2.1036115,-2.104174 a 6.987343,6.9892116 0 0 0 4.1779788,1.398233 6.987343,6.9892116 0 0 0 4.177979,-1.398233 l 2.103612,2.104174 a 0.99829173,0.99855868 0 1 0 1.411505,-1.411883 L 16.58948,15.176953 A 6.987343,6.9892116 0 0 0 17.987339,10.997857 6.987343,6.9892116 0 0 0 16.58948,6.8187608 L 18.693092,4.7145867 A 0.99829173,0.99855868 0 0 0 17.967844,3.0004358 0.99829173,0.99855868 0 0 0 17.281587,3.3027036 l -2.103612,2.104174 A 6.987343,6.9892116 0 0 0 10.999996,4.0086452 6.987343,6.9892116 0 0 0 6.8220172,5.4068776 L 4.7184057,3.3027036 A 0.99829173,0.99855868 0 0 0 4.002905,3.0004358 Z m 6.997091,3.0051271 a 4.9909592,4.9922939 0 0 1 2.748927,0.8307489 L 10.999996,9.5859738 8.2510694,6.8363118 A 4.9909592,4.9922939 0 0 1 10.999996,6.0055629 Z m -4.1604325,2.2426322 2.748927,2.7496619 -2.748927,2.749661 A 4.9909592,4.9922939 0 0 1 6.0090367,10.997857 4.9909592,4.9922939 0 0 1 6.8395635,8.2481951 Z m 8.3208655,0 a 4.9909592,4.9922939 0 0 1 0.830527,2.7496619 4.9909592,4.9922939 0 0 1 -0.830527,2.749661 l -2.748928,-2.749661 z m -4.160433,4.1615439 2.748927,2.749663 a 4.9909592,4.9922939 0 0 1 -2.748927,0.830749 4.9909592,4.9922939 0 0 1 -2.7489266,-0.830749 z"/>
 </g>
 <g id="kup">
  <rect style="opacity:0.001" width="32" height="32" x="0" y="0"/>
  <g>
   <rect style="opacity:0.2" width="29" height="29" x="1" y="2" rx="1.45" ry="1.45"/>
   <rect style="fill:#e4e4e4" width="29" height="29" x="1" y="1" rx="1.45" ry="1.45"/>
   <path style="opacity:0.1" d="M 6.484375,5.984657 A 1.50015,1.50015 0 0 0 5.4394531,8.5608289 L 8.53125,11.652626 A 8.5,8.5 0 0 0 7,16.500282 8.5,8.5 0 0 0 8.5253906,21.353798 l -3.0859375,3.085937 a 1.50015,1.50015 0 1 0 2.1210938,2.121094 L 10.652344,23.469032 A 8.5,8.5 0 0 0 15.5,25.000282 8.5,8.5 0 0 0 20.353516,23.474891 l 3.085937,3.085938 a 1.50015,1.50015 0 1 0 2.121094,-2.121094 L 22.46875,21.347938 A 8.5,8.5 0 0 0 24,16.500282 8.5,8.5 0 0 0 22.474609,11.646766 l 3.085938,-3.0859371 a 1.50015,1.50015 0 0 0 -1.089844,-2.5742188 1.50015,1.50015 0 0 0 -1.03125,0.453125 L 20.347656,9.531532 A 8.5,8.5 0 0 0 15.5,8.000282 8.5,8.5 0 0 0 10.646484,9.5256726 L 7.5605469,6.4397351 A 1.50015,1.50015 0 0 0 6.484375,5.984657 Z M 15.5,11.000282 a 5.4999999,5.4999999 0 0 1 2.679688,0.699219 L 15.5,14.379188 12.824219,11.703407 A 5.4999999,5.4999999 0 0 1 15.5,11.000282 Z m -4.800781,2.820312 2.679687,2.679688 -2.675781,2.675781 A 5.4999999,5.4999999 0 0 1 10,16.500282 5.4999999,5.4999999 0 0 1 10.699219,13.820594 Z m 9.597656,0.0039 A 5.4999999,5.4999999 0 0 1 21,16.500282 5.4999999,5.4999999 0 0 1 20.300781,19.17997 L 17.621094,16.500282 Z M 15.5,18.621376 18.175781,21.297157 A 5.4999999,5.4999999 0 0 1 15.5,22.000282 5.4999999,5.4999999 0 0 1 12.820312,21.301063 Z"/>
   <path style="fill:#4f4f4f" d="M 15.5,7 A 8.5,8.5 0 0 0 7,15.5 8.5,8.5 0 0 0 15.5,24 8.5,8.5 0 0 0 24,15.5 8.5,8.5 0 0 0 15.5,7 Z m 0,3 A 5.4999999,5.4999999 0 0 1 21,15.5 5.4999999,5.4999999 0 0 1 15.5,21 5.4999999,5.4999999 0 0 1 10,15.5 5.4999999,5.4999999 0 0 1 15.5,10 Z"/>
   <path style="fill:none;stroke:#4f4f4f;stroke-width:3;stroke-linecap:round" d="m 6.5,6.5 18,18 v 0"/>
   <path style="fill:none;stroke:#4f4f4f;stroke-width:3;stroke-linecap:round" d="m 24.5,6.5 -18,18"/>
   <path style="opacity:0.2;fill:#ffffff" d="M 2.4492188,1 C 1.6459187,1 1,1.6459187 1,2.4492188 v 1 C 1,2.6459187 1.6459187,2 2.4492188,2 H 28.550781 C 29.354081,2 30,2.6459187 30,3.4492188 v -1 C 30,1.6459187 29.354081,1 28.550781,1 Z"/>
  </g>
 </g>
</svg>

<?xml version="1.0" encoding="UTF-8"?>
<svg width="32" height="32" version="1" xmlns="http://www.w3.org/2000/svg">
 <g id="22-22-kup" transform="translate(32,10)">
  <rect width="22" height="22" opacity=".001"/>
  <path d="m4.0029 3.0004a0.99829 0.99856 0 0 0-0.696 1.7142l2.1036 2.1042a6.9873 6.9892 0 0 0-1.3979 4.1791 6.9873 6.9892 0 0 0 1.3979 4.1791l-2.1036 2.1042a0.99829 0.99856 0 1 0 1.4115 1.4119l2.1036-2.1042a6.9873 6.9892 0 0 0 4.178 1.3982 6.9873 6.9892 0 0 0 4.178-1.3982l2.1036 2.1042a0.99829 0.99856 0 1 0 1.4115-1.4119l-2.1036-2.1042a6.9873 6.9892 0 0 0 1.3979-4.1791 6.9873 6.9892 0 0 0-1.3979-4.1791l2.1036-2.1042a0.99829 0.99856 0 0 0-0.72525-1.7142 0.99829 0.99856 0 0 0-0.68626 0.30227l-2.1036 2.1042a6.9873 6.9892 0 0 0-4.178-1.3982 6.9873 6.9892 0 0 0-4.178 1.3982l-2.1036-2.1042a0.99829 0.99856 0 0 0-0.7155-0.30227zm6.9971 3.0051a4.991 4.9923 0 0 1 2.7489 0.83075l-2.7489 2.7497-2.7489-2.7497a4.991 4.9923 0 0 1 2.7489-0.83075zm-4.1604 2.2426 2.7489 2.7497-2.7489 2.7497a4.991 4.9923 0 0 1-0.83053-2.7497 4.991 4.9923 0 0 1 0.83053-2.7497zm8.3209 0a4.991 4.9923 0 0 1 0.83053 2.7497 4.991 4.9923 0 0 1-0.83053 2.7497l-2.7489-2.7497zm-4.1604 4.1615 2.7489 2.7497a4.991 4.9923 0 0 1-2.7489 0.83075 4.991 4.9923 0 0 1-2.7489-0.83075z" fill="#dfdfdf"/>
 </g>
 <g id="kup">
  <rect width="32" height="32" opacity=".001"/>
  <rect x="1" y="2" width="29" height="29" rx="1.45" ry="1.45" opacity=".2"/>
  <rect x="1" y="1" width="29" height="29" rx="1.45" ry="1.45" fill="#e4e4e4"/>
  <path d="m6.4844 5.9847a1.5002 1.5002 0 0 0-1.0449 2.5762l3.0918 3.0918a8.5 8.5 0 0 0-1.5312 4.8477 8.5 8.5 0 0 0 1.5254 4.8535l-3.0859 3.0859a1.5002 1.5002 0 1 0 2.1211 2.1211l3.0918-3.0918a8.5 8.5 0 0 0 4.8477 1.5312 8.5 8.5 0 0 0 4.8535-1.5254l3.0859 3.0859a1.5002 1.5002 0 1 0 2.1211-2.1211l-3.0918-3.0918a8.5 8.5 0 0 0 1.5312-4.8477 8.5 8.5 0 0 0-1.5254-4.8535l3.0859-3.0859a1.5002 1.5002 0 0 0-1.0898-2.5742 1.5002 1.5002 0 0 0-1.0312 0.45312l-3.0918 3.0918a8.5 8.5 0 0 0-4.8477-1.5312 8.5 8.5 0 0 0-4.8535 1.5254l-3.0859-3.0859a1.5002 1.5002 0 0 0-1.0762-0.45508zm9.0156 5.0156a5.5 5.5 0 0 1 2.6797 0.69922l-2.6797 2.6797-2.6758-2.6758a5.5 5.5 0 0 1 2.6758-0.70312zm-4.8008 2.8203 2.6797 2.6797-2.6758 2.6758a5.5 5.5 0 0 1-0.70312-2.6758 5.5 5.5 0 0 1 0.69922-2.6797zm9.5977 0.0039a5.5 5.5 0 0 1 0.70312 2.6758 5.5 5.5 0 0 1-0.69922 2.6797l-2.6797-2.6797zm-4.7969 4.7969 2.6758 2.6758a5.5 5.5 0 0 1-2.6758 0.70312 5.5 5.5 0 0 1-2.6797-0.69922z" opacity=".1"/>
  <path d="m15.5 7a8.5 8.5 0 0 0-8.5 8.5 8.5 8.5 0 0 0 8.5 8.5 8.5 8.5 0 0 0 8.5-8.5 8.5 8.5 0 0 0-8.5-8.5zm0 3a5.5 5.5 0 0 1 5.5 5.5 5.5 5.5 0 0 1-5.5 5.5 5.5 5.5 0 0 1-5.5-5.5 5.5 5.5 0 0 1 5.5-5.5z" fill="#4f4f4f"/>
  <path d="m6.5 6.5 18 18v0" fill="none" stroke="#4f4f4f" stroke-linecap="round" stroke-width="3"/>
  <path d="m24.5 6.5-18 18" fill="none" stroke="#4f4f4f" stroke-linecap="round" stroke-width="3"/>
  <path d="m2.4492 1c-0.8033 0-1.4492 0.64592-1.4492 1.4492v1c0-0.8033 0.64592-1.4492 1.4492-1.4492h26.102c0.8033 0 1.4492 0.64592 1.4492 1.4492v-1c0-0.8033-0.64592-1.4492-1.4492-1.4492z" fill="#fff" opacity=".2"/>
 </g>
</svg>
